X: 2173
T: Şevk`efzâ Seyir
C: Şefik Gürmeriç
O: Turkey
F: http://compmusic.upf.edu/node/140
N: sevkefza--seyir--sofyan--1--sefik_gurmeric
N: makam= sevkefza
N: form= seyir
N: usul= sofyan = 4/4
M: 4/4
L: 1/16
K: C _B _7/8d  
Q: 1/4=60
%%MIDI tuningsystem comma53
f4 g4 g4 g2_7/8a2  | g2f2 e2f2 g8  | \
w:   |   | 
z4 g2_7/8a2 c'2_2/4b2 a2g2  | g2f2 f2e2 f8  | 
w:   |   | 
z4 e2f2 g2_7/8a4g2  | g2f2 f2e2 e8  | \
w:   |   | 
z4 f2_7/8a2 g2f2 f2e2  | e2d2 d2c2 c8  | 
w:   |   | 
z4 f2e2 _3/4d4 c4  | d2c2 B2A2 B8  | \
w:   |   | 
z4 c2=d2 _e4 d2c2  | c2B2 B2A2 A2^G2 A4  | 
w:   |   | 
z4 F2G2 A2B2 c2=d2  | c2B2 A2G2 F4 G2A2  | \
w:   |   | 
G3F E2F2 E2F2 GAGF  | 
w:   | 
F16  | |


